svgs/sharp-regular/newspaper.svg

<svg xmlns="http://www.w3.org/2000/svg" viewBox="0 0 512 512"><!--! Font Awesome Pro 6.6.0 by @fontawesome - https://fontawesome.com License - https://fontawesome.com/license (Commercial License) Copyright 2024 Fonticons, Inc. --><path d="M96 32l24 0 368 0 24 0 0 24 0 400 0 24-24 0-344 0-24 0-48 0-24 0-24 0L0 480l0-24L0 112 0 88l48 0 0 24 0 320 24 0 24 0L96 56l0-24zm48 400l320 0 0-352L144 80l0 352zm32-320l144 0 0 128-144 0 0-128zm200 0l32 0 24 0 0 48-24 0-32 0-24 0 0-48 24 0zm0 80l32 0 24 0 0 48-24 0-32 0-24 0 0-48 24 0zM200 272l208 0 24 0 0 48-24 0-208 0-24 0 0-48 24 0zm0 80l208 0 24 0 0 48-24 0-208 0-24 0 0-48 24 0z"/></svg>

<svg xmlns="http://www.w3.org/2000/svg" viewBox="0 0 512 512"><!--! Font Awesome Pro 6.4.0 by @fontawesome - https://fontawesome.com License - https://fontawesome.com/license (Commercial License) Copyright 2023 Fonticons, Inc. --><path d="M96 32h24H488h24V56 456v24H488 144 120 72 48 24 0V456 112 88H48v24V432H72 96V56 32zm48 400H464V80H144V432zm32-320H320V240H176V112zm200 0h32 24v48H408 376 352V112h24zm0 80h32 24v48H408 376 352V192h24zM200 272H408h24v48H408 200 176V272h24zm0 80H408h24v48H408 200 176V352h24z"/></svg>
